X: 9922
T: Destitution, The
R: reel
M: 4/4
K: Bminor
|:B2fB aBfB|agfg egfd|B2fB aBfB|edcd egfd|
B2fB aBfB|agfg egfd|Bdce dfeg|fecd B3A:|
|:FB B2 FBdB|FB B2 cd e2|FB B2 FBdB|fgfe fB B2|
FB B2 FBdB|FB B2 cd e2|fdec dBcA|fgfe fBBA:|

